X:178
T:Rakish Paddy
M:4/4
L:1/8
R:Reel
K:ADor
AB|"sm"c3B c2 AB|cBAG eG G2|Add^c de=fe|dcAG FGAB|
c3 B c2 AB|cBAG eG G2|DEFG ABcA|1dcAG FGAB:|2dcAG FD D2||:
eg g2 ag g2|eg g2 ed^cd|ea a2 baag|eaag ed^cd|
eg g2 egge|g3e defg|af (3gfe) fde^c|d=cAG FD D2:||
"I 3"Add^c d2 (3gfe)||"I 7"DEFG AB (3cBA)||"II 3"ea ~a2~a2~a2||"II 7"a2
ge fd e^c||"II 7"abag fgfe||
